Catalina-light/actions/22/meeting-participant-no-response.svg

<svg xmlns="http://www.w3.org/2000/svg" viewBox="0 0 22 22">
  <defs id="defs3051">
    <style type="text/css" id="current-color-scheme">
      .ColorScheme-NegativeText {
        color:#da4453;
      }
      .ColorScheme-Text {
        color:#4d4d4d
      }
      </style>
  </defs>
 <path 
     style="fill:currentColor;fill-opacity:1;stroke:none"      
	 class="ColorScheme-Text"
     d="M 10.974609 6.2519531 C 9.3760588 6.2519531 8.0097656 7.3346971 8.0097656 9.4023438 C 8.0097656 10.752253 8.6358724 12.122162 9.4648438 12.96875 C 9.7879765 13.816344 9.210641 14.131992 9.0898438 14.175781 C 7.9635182 14.540011 4.898789 16.355447 4.9472656 19 L 17.052734 19 C 17.10676 16.473701 14.682575 14.83369 12.767578 14.175781 C 12.68755 14.149609 12.181961 13.921779 12.498047 12.960938 L 12.494141 12.960938 C 13.318079 12.112337 13.947266 10.746717 13.947266 9.4023438 C 13.947266 7.3352004 12.572153 6.2519531 10.974609 6.2519531 z "
     />
 <path 
     style="fill:currentColor;fill-opacity:1;stroke:none"      
	 class="ColorScheme-NegativeText"
     d="M 6.6308594 3 C 6.0256656 3 5.5371094 3.4866031 5.5371094 4.0917969 C 5.5371094 4.6969907 6.0256656 5.1855469 6.6308594 5.1855469 C 7.2360532 5.1855469 7.7226562 4.6969907 7.7226562 4.0917969 C 7.7226562 3.4866031 7.2360532 3 6.6308594 3 z M 11 3 C 10.394806 3 9.9082031 3.4866031 9.9082031 4.0917969 C 9.9082031 4.6969907 10.394806 5.1855469 11 5.1855469 C 11.605194 5.1855469 12.091797 4.6969907 12.091797 4.0917969 C 12.091797 3.4866031 11.605194 3 11 3 z M 15.369141 3 C 14.763947 3 14.277344 3.4866031 14.277344 4.0917969 C 14.277344 4.6969907 14.763947 5.1855469 15.369141 5.1855469 C 15.974334 5.1855469 16.462891 4.6969907 16.462891 4.0917969 C 16.462891 3.4866031 15.974334 3 15.369141 3 z "
     />
</svg>

<svg viewBox="0 0 22 22" xmlns="http://www.w3.org/2000/svg">
<defs>
<style id="current-color-scheme" type="text/css">.ColorScheme-NegativeText {
        color:#da4453;
      }
      .ColorScheme-Text {
        color:#363636
      }</style>
</defs>
<path class="ColorScheme-Text" d="m10.975 6.252c-1.5986 0-2.9648 1.0827-2.9648 3.1504 0 1.3499 0.62611 2.7198 1.4551 3.5664 0.32313 0.84759-0.2542 1.1632-0.375 1.207-1.1263 0.36423-4.1911 2.1797-4.1426 4.8242h12.105c0.054026-2.5263-2.3702-4.1663-4.2852-4.8242-0.080028-0.026172-0.58562-0.254-0.26953-1.2148h-0.003906c0.82394-0.8486 1.4531-2.2142 1.4531-3.5586 0-2.0671-1.3751-3.1504-2.9727-3.1504z" fill="#363636"/>
<path class="ColorScheme-NegativeText" d="m6.6309 3c-0.60519 0-1.0938 0.4866-1.0938 1.0918s0.48856 1.0938 1.0938 1.0938 1.0918-0.48856 1.0918-1.0938-0.4866-1.0918-1.0918-1.0918zm4.3691 0c-0.60519 0-1.0918 0.4866-1.0918 1.0918s0.4866 1.0938 1.0918 1.0938 1.0918-0.48856 1.0918-1.0938-0.4866-1.0918-1.0918-1.0918zm4.3691 0c-0.60519 0-1.0918 0.4866-1.0918 1.0918s0.4866 1.0938 1.0918 1.0938c0.60519 0 1.0938-0.48856 1.0938-1.0938s-0.48856-1.0918-1.0938-1.0918z" fill="#363636"/>
</svg>
